wordpress/wp-content/plugins/google-analytics-for-wordpress/lite/assets/vue/img/icon-pushengage.svg

<svg width="27" height="21" viewBox="0 0 27 21" fill="none" xmlns="http://www.w3.org/2000/svg">
	<path
		d="M26.4999 10.3544C26.4622 13.8973 25.4069 16.724 23.2962 19.1361C22.9193 19.5884 22.4671 20.003 22.0148 20.3799C21.6002 20.7568 20.9972 20.7568 20.658 20.3799C20.3188 19.9653 20.3941 19.4 20.8464 19.0231C21.7886 18.2316 22.5424 17.327 23.1455 16.2717C24.05 14.7264 24.5777 13.0681 24.6531 11.259C24.8038 8.13075 23.8239 5.45479 21.751 3.15572C21.4494 2.8542 21.1102 2.55268 20.8087 2.25116C20.3941 1.87426 20.3188 1.27123 20.658 0.894329C20.9972 0.479743 21.5625 0.479743 22.0148 0.894329C24.4269 2.96727 25.8591 5.60555 26.3868 8.73379C26.4622 9.37451 26.4622 10.0152 26.4999 10.3544Z"
		fill="#3B43FF"/>
	<path
		d="M0.833252 10.6563C0.908631 6.73658 2.37853 3.45758 5.35601 0.856986C5.7706 0.480089 6.37363 0.517779 6.67515 0.894676C7.01436 1.27157 6.93898 1.87461 6.52439 2.21381C4.48915 3.98524 3.2077 6.17124 2.79311 8.8472C2.22777 12.3523 3.17001 15.4429 5.54446 18.0812C5.84598 18.4204 6.22288 18.7596 6.56208 19.0611C6.97667 19.438 7.01436 20.0033 6.67515 20.3802C6.33594 20.7571 5.7706 20.7571 5.35601 20.4179C2.71774 18.1566 1.21015 15.2544 0.908631 11.787C0.908631 11.5986 0.870942 11.4101 0.870942 11.2217C0.833252 11.0332 0.833252 10.8448 0.833252 10.6563Z"
		fill="#3B43FF"/>
	<path
		d="M4.48926 10.6183C4.56464 7.82924 5.58226 5.49248 7.73057 3.64568C8.18285 3.26879 8.67281 3.30648 9.04971 3.72106C9.38891 4.09796 9.35122 4.58793 8.89895 5.00251C7.88133 5.94475 7.05216 7.03775 6.63757 8.39458C5.84609 11.1459 6.41143 13.5958 8.37129 15.7064C8.55974 15.9325 8.78588 16.121 8.97433 16.3471C9.31354 16.6863 9.35122 17.214 9.04971 17.5532C8.74819 17.9301 8.14516 18.0054 7.80595 17.6662C7.2406 17.1386 6.71295 16.6109 6.22298 16.0079C5.20536 14.6511 4.64002 13.1058 4.52695 11.3721C4.52695 11.259 4.48926 11.1459 4.48926 10.9952C4.48926 10.8821 4.48926 10.769 4.48926 10.6183Z"
		fill="#3B43FF"/>
	<path
		d="M22.8441 10.6559C22.7687 13.3696 21.7511 15.6686 19.7158 17.5154C19.4143 17.817 19.0374 17.9677 18.6228 17.817C18.0198 17.5531 17.869 16.8747 18.3213 16.3471C18.849 15.744 19.452 15.1787 19.9043 14.5003C21.7134 11.7112 21.2988 7.90458 18.9244 5.53013C18.7359 5.34168 18.5475 5.15323 18.359 4.96478C18.0198 4.62558 17.9821 4.09792 18.2836 3.75871C18.6228 3.38182 19.1505 3.30644 19.5651 3.60796C20.3189 4.21099 20.9596 4.92709 21.4496 5.75627C22.2411 7.03772 22.731 8.43223 22.8064 9.93982C22.8064 10.166 22.8064 10.3921 22.8441 10.6559Z"
		fill="#3B43FF"/>
	<path
		d="M19.1126 10.4298C19.1126 12.3143 18.4719 13.6334 17.2659 14.7641C16.8513 15.1787 16.2482 15.1787 15.909 14.7641C15.5698 14.3872 15.5698 13.8219 16.0221 13.445C16.7759 12.7289 17.2659 11.862 17.3035 10.8067C17.3412 9.78906 17.0397 8.9222 16.3613 8.16841C16.2482 8.01765 16.0975 7.90458 15.9844 7.79151C15.6075 7.41461 15.5698 6.88696 15.909 6.51006C16.2482 6.13317 16.8136 6.09548 17.2282 6.47237C17.8689 7.03772 18.3589 7.71613 18.6981 8.50762C18.9996 9.18603 19.1503 9.90213 19.1126 10.4298Z"
		fill="#3B43FF"/>
	<path
		d="M10.5949 6.20856C11.1226 6.20856 11.3864 6.39701 11.5748 6.7739C11.7633 7.1508 11.6502 7.5277 11.3487 7.79152C10.8587 8.28149 10.4442 8.77145 10.218 9.44987C9.76574 10.8821 10.0673 12.1258 11.0472 13.2188C11.1226 13.3319 11.2356 13.4073 11.3487 13.5204C11.7256 13.9349 11.7633 14.4626 11.3864 14.8395C11.0472 15.1787 10.4818 15.2164 10.1049 14.8772C9.1627 14.048 8.52198 13.0681 8.33353 11.8243C7.95663 9.78907 8.52198 8.01766 10.0296 6.62314C10.218 6.35932 10.4818 6.28394 10.5949 6.20856Z"
		fill="#3B43FF"/>
	<path
		d="M13.6101 12.4274C12.5925 12.4274 11.801 11.6359 11.801 10.6183C11.801 9.60064 12.6302 8.80916 13.6478 8.80916C14.6654 8.80916 15.4569 9.60064 15.4569 10.6183C15.4569 11.6736 14.6654 12.4274 13.6101 12.4274Z"
		fill="#3B43FF"/>
</svg>

<svg width="27" height="21" fill="none" xmlns="http://www.w3.org/2000/svg"><path d="M26.5 10.354c-.038 3.543-1.093 6.37-3.204 8.782-.377.452-.829.867-1.281 1.244-.415.377-1.018.377-1.357 0-.34-.415-.264-.98.188-1.357a10.061 10.061 0 002.3-2.751c.904-1.546 1.432-3.204 1.507-5.013.15-3.128-.83-5.804-2.902-8.103-.302-.302-.64-.603-.942-.905-.415-.377-.49-.98-.151-1.357.34-.414.904-.414 1.357 0 2.412 2.073 3.844 4.712 4.372 7.84.075.64.075 1.281.113 1.62zm-25.667.302C.91 6.736 2.38 3.458 5.356.857c.415-.377 1.018-.34 1.32.038.338.377.263.98-.152 1.319C4.49 3.985 3.208 6.17 2.794 8.847c-.566 3.505.376 6.596 2.75 9.234.302.34.679.679 1.018.98.415.377.452.942.113 1.32-.34.376-.904.376-1.319.037-2.638-2.261-4.146-5.164-4.447-8.631 0-.188-.038-.377-.038-.565-.038-.189-.038-.377-.038-.566z" fill="#3B43FF"/><path d="M4.49 10.618c.075-2.789 1.092-5.126 3.24-6.972.453-.377.943-.34 1.32.075.339.377.301.867-.151 1.282-1.018.942-1.847 2.035-2.261 3.392-.792 2.75-.227 5.2 1.733 7.311.189.226.415.415.603.641.34.34.377.867.076 1.206-.302.377-.905.452-1.244.113a16.432 16.432 0 01-1.583-1.658c-1.018-1.357-1.583-2.902-1.696-4.636 0-.113-.038-.226-.038-.377v-.377zm18.354.038c-.075 2.714-1.093 5.013-3.128 6.86-.302.301-.679.452-1.093.301-.603-.264-.754-.942-.302-1.47.528-.603 1.131-1.168 1.583-1.847 1.81-2.789 1.395-6.595-.98-8.97l-.565-.565c-.34-.34-.377-.867-.075-1.206.339-.377.867-.453 1.281-.151a7.9 7.9 0 011.885 2.148c.791 1.282 1.281 2.676 1.356 4.184 0 .226 0 .452.038.716z" fill="#3B43FF"/><path d="M19.113 10.43c0 1.884-.641 3.203-1.847 4.334-.415.415-1.018.415-1.357 0-.34-.377-.34-.942.113-1.319.754-.716 1.244-1.583 1.282-2.638.037-1.018-.264-1.885-.943-2.639-.113-.15-.264-.263-.377-.376-.377-.377-.414-.905-.075-1.282.34-.377.905-.415 1.32-.038a5.646 5.646 0 011.47 2.036c.3.678.451 1.394.414 1.922zm-8.518-4.221c.528 0 .791.188.98.565.188.377.075.754-.226 1.018-.49.49-.905.98-1.131 1.658-.452 1.432-.15 2.676.83 3.769.075.113.188.188.3.301.378.415.415.943.038 1.32a.934.934 0 01-1.281.037c-.942-.829-1.583-1.809-1.771-3.053-.377-2.035.188-3.806 1.696-5.2.188-.265.452-.34.565-.415zm3.015 6.218a1.786 1.786 0 01-1.809-1.809c0-1.017.83-1.809 1.847-1.809s1.809.792 1.809 1.81c0 1.055-.792 1.808-1.847 1.808z" fill="#3B43FF"/></svg>
